packages/icons/svgs/solid/Source=download.svg

<svg width="12" height="12" viewBox="0 0 12 12" fill="none" xmlns="http://www.w3.org/2000/svg">
<g clip-path="url(#clip0_1829_842)">
<path d="M10.5 7.5C10.3011 7.5 10.1103 7.57902 9.96967 7.71967C9.82902 7.86032 9.75 8.05109 9.75 8.25V9.75H2.25V8.25C2.25 8.05109 2.17098 7.86032 2.03033 7.71967C1.88968 7.57902 1.69891 7.5 1.5 7.5C1.30109 7.5 1.11032 7.57902 0.96967 7.71967C0.829018 7.86032 0.75 8.05109 0.75 8.25V9.75C0.75 10.1478 0.908035 10.5294 1.18934 10.8107C1.47064 11.092 1.85218 11.25 2.25 11.25H9.75C10.1478 11.25 10.5294 11.092 10.8107 10.8107C11.092 10.5294 11.25 10.1478 11.25 9.75V8.25C11.25 8.05109 11.171 7.86032 11.0303 7.71967C10.8897 7.57902 10.6989 7.5 10.5 7.5Z" fill="black"/>
<path d="M5.46975 8.03025C5.6104 8.17085 5.80113 8.24984 6 8.24984C6.19887 8.24984 6.3896 8.17085 6.53025 8.03025L9.53025 5.03025C9.60188 4.96106 9.65902 4.87831 9.69833 4.7868C9.73763 4.6953 9.75832 4.59689 9.75919 4.4973C9.76005 4.39772 9.74108 4.29896 9.70337 4.20678C9.66566 4.11461 9.60997 4.03087 9.53955 3.96045C9.46913 3.89003 9.38539 3.83434 9.29322 3.79663C9.20104 3.75892 9.10228 3.73995 9.0027 3.74081C8.90311 3.74168 8.8047 3.76237 8.7132 3.80167C8.62169 3.84098 8.53894 3.89812 8.46975 3.96975L6.75 5.6895V1.5C6.75 1.30109 6.67098 1.11032 6.53033 0.96967C6.38968 0.829018 6.19891 0.75 6 0.75C5.80109 0.75 5.61032 0.829018 5.46967 0.96967C5.32902 1.11032 5.25 1.30109 5.25 1.5V5.6895L3.53025 3.96975C3.3888 3.83313 3.19935 3.75754 3.0027 3.75924C2.80605 3.76095 2.61794 3.83983 2.47889 3.97889C2.33983 4.11794 2.26095 4.30605 2.25924 4.5027C2.25754 4.69935 2.33313 4.8888 2.46975 5.03025L5.46975 8.03025Z" fill="black"/>
</g>
<defs>
<clipPath id="clip0_1829_842">
<rect width="12" height="12" fill="white"/>
</clipPath>
</defs>
</svg>

<svg xmlns="http://www.w3.org/2000/svg" width="12" height="12" viewBox="0 0 12 12"><g clip-path="url(#a)"><path d="M10.5 7.5a.75.75 0 0 0-.75.75v1.5h-7.5v-1.5a.75.75 0 0 0-1.5 0v1.5a1.5 1.5 0 0 0 1.5 1.5h7.5a1.5 1.5 0 0 0 1.5-1.5v-1.5a.75.75 0 0 0-.75-.75Z"/><path d="M5.47 8.03a.75.75 0 0 0 1.06 0l3-3a.75.75 0 1 0-1.06-1.06L6.75 5.69V1.5a.75.75 0 0 0-1.5 0v4.19L3.53 3.97a.75.75 0 0 0-1.06 1.06l3 3Z"/></g><defs><clipPath id="a"><path fill="#fff" d="M0 0h12v12H0z"/></clipPath></defs></svg>
